X: 211
T: Miss Hood's Strathspey
C: Abraham Mackintosh
R: strathspey
M: C|
L: 1/8
Z: 2011 John Chambers <jc:trillian.mit.edu>
B: Abraham Mackintosh "A Collection of Strathspeys, Reels, Jigs &c.", Newcastle, after 1797, p._
F: http://imslp.info/files/imglnks/usimg/a/a8/IMSLP80796-PMLP164326-Abraham_Mackintosh_coll.pdf
K: A
V: 1
E |\
A>BA>A c<ee>c | d<ff>a e<cB>c | A>BA>B c<ef>a | {a}gf/e/ d^d eEE :|
|: e |\
e>fe>=g f>dB>d | e>cA>c B>GE>A | F>AE>A D>A C>e | f>d Bg aAA :|
V: 2 clef=bass middle=d
z |\
a2[a2c'2] [a2c'2][a2c'2] | d'2d2 a2e2 | a2A2 a2^d2 | eg bB e2E :|
|: z |\
A2c2 d3B | c2f^d e3c' | d'2c'2 b2a2 | dBe2 a2A :|

%%sep 2 1 500

